;FLAVOR:Marlin
;TIME:1170
;Filament used: 0.532759m
;Layer height: 0.12
;MINX:90.941
;MINY:90.944
;MINZ:0.144
;MAXX:139.046
;MAXY:137.995
;MAXZ:3.834
;TARGET_MACHINE.NAME:Creality Ender-3 v2 Neo
;Generated with Cura_SteamEngine 5.11.0
M140 S60
M105
M190 S60
M104 S200
M105
M109 S200
G92 E0 ;Reset Extruder
G28 ;Home
G1 Z2.0 F3000 ;Move Z Axis up
G1 X10.1 Y20 Z0.28 F5000.0 ;Move to start position
G1 X10.1 Y200.0 Z0.28 F1500.0 E15 ;Draw the first line
G1 X10.4 Y200.0 Z0.28 F5000.0 ;Move to side a little
G1 X10.4 Y20 Z0.28 F1500.0 E30 ;Draw the second line
G92 E0 ;Reset Extruder
G1 Z2.0 F3000 ;Move Z Axis up
M82 ;absolute extrusion mode
G92 E0
G92 E0
G1 F1500 E-4
;LAYER_COUNT:26
;LAYER:-7
M107
G0 F9000 X98.887 Y98.588 Z0.144
;TYPE:SUPPORT-INTERFACE
G1 F1500 E0
G1 F1125 X99.278 Y98.213 E0.02595
G1 X99.813 Y97.724 E0.06066
G1 X100.141 Y97.443 E0.08135
G1 X100.722 Y96.969 E0.11726
G1 X101.143 Y96.642 E0.14279
G1 X102.15 Y95.927 E0.20194
G1 X102.795 Y95.506 E0.23883
G1 X103.17 Y95.276 E0.2599
G1 X103.864 Y94.874 E0.29831
G1 X104.246 Y94.667 E0.31912
G1 X104.98 Y94.296 E0.35851
G1 X105.361 Y94.117 E0.37868
G1 X106.459 Y93.639 E0.43603
G1 X107.232 Y93.349 E0.47557
G1 X107.615 Y93.216 E0.49499
G1 X108.434 Y92.956 E0.53615
G1 X109.018 Y92.796 E0.56515
G1 X110.108 Y92.524 E0.61895
G1 X111.204 Y92.315 E0.67239
G1 X112.181 Y92.174 E0.71967
G1 X113.322 Y92.06 E0.77459
G1 X114.425 Y92.008 E0.82748
G1 X114.879 Y92.001 E0.84922
G1 X115.756 Y92.016 E0.89123
G1 X116.161 Y92.032 E0.91064
G1 X117.312 Y92.115 E0.96591
G1 X118.631 Y92.284 E1.0296
G1 X119.391 Y92.421 E1.06659
G1 X120.629 Y92.704 E1.12741
G1 X121.814 Y93.035 E1.18634
G1 X122.891 Y93.397 E1.24076
G1 X124.12 Y93.889 E1.30416
G1 X124.498 Y94.053 E1.3239
G1 X125.31 Y94.441 E1.367
G1 X126.38 Y95.017 E1.4252
G1 X127.37 Y95.615 E1.4806
G1 X127.761 Y95.869 E1.50293
G1 X128.335 Y96.262 E1.53624
G1 X129.395 Y97.066 E1.59996
G1 X129.73 Y97.339 E1.62066
G1 X130.282 Y97.815 E1.65557
G1 X130.658 Y98.16 E1.68001
G1 X131.211 Y98.69 E1.7167
G1 X131.523 Y99.005 E1.73793
G1 X132.119 Y99.645 E1.77982
G1 X132.853 Y100.505 E1.83397
G1 X133.609 Y101.489 E1.8934
G1 X133.87 Y101.856 E1.91497
G1 X134.562 Y102.909 E1.97532
G1 X135.17 Y103.955 E2.03327
G1 X135.632 Y104.829 E2.08061
G1 X136.238 Y106.167 E2.15096
G1 X136.532 Y106.926 E2.18995
G1 X136.923 Y108.056 E2.24722
G1 X137.063 Y108.52 E2.27043
G1 X137.245 Y109.179 E2.30317
G1 X137.378 Y109.704 E2.32911
G1 X137.544 Y110.464 E2.36637
G1 X137.622 Y110.874 E2.38636
G1 X137.76 Y111.72 E2.42741
G1 X137.818 Y112.153 E2.44834
G1 X137.905 Y112.962 E2.48731
G1 X137.94 Y113.402 E2.50845
G1 X137.992 Y114.599 E2.56583
G1 X137.992 Y115.385 E2.60348
G1 X137.94 Y116.62 E2.66268
G1 X137.818 Y117.848 E2.72178
G1 X137.752 Y118.332 E2.74518
G1 X137.626 Y119.105 E2.78269
G1 X137.544 Y119.531 E2.80347
G1 X137.386 Y120.25 E2.83872
G1 X137.268 Y120.735 E2.86263
G1 X137.071 Y121.453 E2.89829
G1 X136.942 Y121.878 E2.91956
G1 X136.686 Y122.648 E2.95843
G1 X136.534 Y123.064 E2.97964
G1 X136.088 Y124.17 E3.03676
G1 X135.739 Y124.935 E3.07703
G1 X135.176 Y126.033 E3.13613
G1 X134.95 Y126.434 E3.15817
G1 X134.524 Y127.144 E3.19783
G1 X133.862 Y128.149 E3.25547
G1 X133.612 Y128.504 E3.27626
G1 X133.136 Y129.138 E3.31423
G1 X132.416 Y130.015 E3.36858
G1 X132.123 Y130.347 E3.38979
G1 X131.499 Y131.014 E3.43353
G1 X131.198 Y131.319 E3.45406
G1 X130.61 Y131.888 E3.49324
G1 X130.315 Y132.155 E3.5123
G1 X129.691 Y132.688 E3.55161
G1 X129.315 Y132.994 E3.57482
G1 X128.743 Y133.436 E3.60945
G1 X128.408 Y133.681 E3.62932
G1 X127.401 Y134.366 E3.68765
G1 X126.783 Y134.744 E3.72235
G1 X126.303 Y135.023 E3.74894
G1 X125.637 Y135.385 E3.78525
G1 X125.144 Y135.636 E3.81174
G1 X124.45 Y135.963 E3.84849
G1 X123.879 Y136.213 E3.87834
G1 X122.917 Y136.587 E3.92778
G1 X121.811 Y136.962 E3.98371
G1 X121.068 Y137.178 E4.02077
G1 X120.627 Y137.295 E4.04262
G1 X119.821 Y137.484 E4.08227
G1 X118.645 Y137.705 E4.13958
G1 X118.234 Y137.767 E4.15949
G1 X117.419 Y137.866 E4.19881
G1 X116.951 Y137.913 E4.22134
G1 X116.143 Y137.964 E4.26011
G1 X115.672 Y137.984 E4.28269
G1 X114.897 Y137.995 E4.31981
G1 X114.439 Y137.988 E4.34175
G1 X113.686 Y137.96 E4.37784
G1 X113.137 Y137.921 E4.4042
G1 X112.507 Y137.862 E4.43451
G1 X112.022 Y137.803 E4.45791
G1 X111.196 Y137.681 E4.4979
G1 X110.104 Y137.465 E4.55121
G1 X110.015 Y137.414 E4.55612
G1 X109.855 Y137.413 E4.56379
G1 X109.568 Y137.347 E4.57789
G1 X108.764 Y137.138 E4.61768
G1 X108.307 Y137.002 E4.64052
G1 X107.357 Y136.694 E4.68835
G1 X106.516 Y136.375 E4.73143
G1 X106.022 Y136.172 E4.75701
G1 X105.284 Y135.844 E4.79569
G1 X104.91 Y135.665 E4.81554
G1 X104.167 Y135.286 E4.85549
G1 X103.079 Y134.669 E4.9154
G1 X102.726 Y134.448 E4.93534
G1 X101.813 Y133.839 E4.98791
G1 X101.112 Y133.331 E5.02937
G1 X100.793 Y133.086 E5.04864
G1 X100.126 Y132.542 E5.08986
G1 X99.798 Y132.257 E5.11067
G1 X99.218 Y131.728 E5.14827
G1 X98.881 Y131.403 E5.17069
G1 X98.357 Y130.874 E5.20635
G1 X98.017 Y130.511 E5.23017
G1 X97.508 Y129.931 E5.26713
G1 X97.206 Y129.571 E5.28964
G1 X96.714 Y128.952 E5.32751
G1 X96.465 Y128.614 E5.34762
G1 X95.782 Y127.646 E5.40436
G1 X95.371 Y126.984 E5.44168
G1 X95.087 Y126.504 E5.46839
G1 X94.752 Y125.905 E5.50126
G1 X94.45 Y125.332 E5.53228
G1 X93.99 Y124.36 E5.58378
G1 X93.667 Y123.596 E5.62351
G1 X93.499 Y123.17 E5.64544
G1 X93.247 Y122.473 E5.68094
G1 X92.861 Y121.242 E5.74273
G1 X92.57 Y120.097 E5.79931
G1 X92.481 Y119.686 E5.81945
G1 X92.268 Y118.492 E5.87754
G1 X92.162 Y117.743 E5.91377
G1 X92.103 Y117.169 E5.94141
G1 X92.024 Y116.064 E5.99447
G1 X92 Y115.234 E6.03424
G1 X92 Y114.782 E6.05589
G1 X92.024 Y113.913 E6.09752
G1 X92.107 Y112.789 E6.1515
G1 X92.158 Y112.324 E6.17391
G1 X92.26 Y111.546 E6.21149
G1 X92.338 Y111.06 E6.23506
G1 X92.571 Y109.912 E6.29117
G1 X92.752 Y109.173 E6.32761
G1 X92.881 Y108.7 E6.35109
G1 X93.18 Y107.727 E6.39984
G1 X93.55 Y106.695 E6.45235
G1 X94.014 Y105.583 E6.51006
G1 X94.217 Y105.15 E6.53296
G1 X94.549 Y104.479 E6.56882
G1 X95.103 Y103.46 E6.62437
G1 X95.381 Y102.994 E6.65036
G1 X95.807 Y102.324 E6.68838
G1 X96.436 Y101.42 E6.74113
G1 X96.729 Y101.03 E6.76449
G1 X97.502 Y100.067 E6.82364
G1 X98.077 Y99.421 E6.86506
G1 X98.887 Y98.588 E6.92071
G0 F9000 X99.022 Y99.022
G1 F1125 X130.976 Y130.976 E9.08505
G1 F1500 E5.08505
G0 F9000 X132.068 Y129.806
G1 F1500 E9.08505
G1 F1125 X100.191 Y97.928 E11.24422
G1 F1500 E7.24422
G0 F9000 X101.444 Y96.919
G1 F1500 E11.24422
G1 F1125 X133.077 Y128.551 E13.38679
G1 F1500 E9.38679
G0 F9000 X134.001 Y127.213
G1 F1500 E13.38679
G1 F1125 X102.782 Y95.993 E15.50138
G1 F1500 E11.50138
G0 F9000 X104.199 Y95.148
G1 F1500 E15.50138
G1 F1125 X134.848 Y125.797 E17.57734
G1 F1500 E13.57734
G0 F9000 X135.597 Y124.283
G1 F1500 E17.57734
G1 F1125 X105.713 Y94.399 E19.60148
G1 F1500 E15.60148
G0 F9000 X107.32 Y93.743
G1 F1500 E19.60148
G1 F1125 X136.25 Y122.674 E21.56103
G1 F1500 E17.56103
G0 F9000 X136.794 Y120.955
G1 F1500 E21.56103
G1 F1125 X109.044 Y93.204 E23.44066
G1 F1500 E19.44066
G0 F9000 X110.881 Y92.779
G1 F1500 E23.44066
G1 F1125 X137.217 Y119.115 E25.22448
G1 F1500 E21.22448
G0 F9000 X137.488 Y117.124
G1 F1500 E25.22448
G1 F1125 X112.872 Y92.507 E26.89184
G1 F1500 E22.89184
G0 F9000 X115.033 Y92.405
G1 F1500 E26.89184
G1 F1125 X137.592 Y114.965 E28.41986
G1 F1500 E24.41986
G0 F9000 X137.461 Y112.571
G1 F1500 E28.41986
G1 F1125 X117.423 Y92.533 E29.7771
G1 F1500 E25.7771
G0 F9000 X120.161 Y93.008
G1 F1500 E29.7771
G1 F1125 X137 Y109.847 E30.91766
G1 F1500 E26.91766
G0 F9000 X135.953 Y106.537
G1 F1500 E30.91766
G1 F1125 X123.475 Y94.059 E31.76283
G1 F1500 E27.76283
G0 F9000 X124.465 Y92.88
G0 X126.787 Y94.024
G0 X128.076 Y94.846
G0 X129.363 Y95.695
G0 X128.78 Y97.101
G1 F1500 E31.76283
G1 F1125 X132.899 Y101.22 E32.04183
G1 F1500 E28.04183
G0 F9000 X134.464 Y100.854
G0 X135.51 Y102.422
G0 X136.508 Y104.214
G0 X137.532 Y106.557
G0 X138.31 Y109.038
G0 X138.805 Y111.45
G0 X139.046 Y114.217
G0 X139.044 Y115.998
G0 X138.805 Y118.55
G0 X138.508 Y120.187
G0 X137.799 Y122.657
G0 X137.027 Y124.68
G0 X135.859 Y126.992
G0 X134.467 Y129.14
G0 X132.797 Y131.19
G0 X131.025 Y132.949
G0 X129.804 Y132.066
G1 F1500 E32.04183
G1 F1125 X97.927 Y100.189 E34.20096
G1 F1500 E30.20096
G0 F9000 X96.917 Y101.443
G1 F1500 E34.20096
G1 F1125 X128.552 Y133.077 E36.34366
G1 F1500 E32.34366
G0 F9000 X127.218 Y134.007
G1 F1500 E36.34366
G1 F1125 X95.991 Y102.779 E38.4588
G1 F1500 E34.4588
G0 F9000 X95.153 Y104.203
G1 F1500 E38.4588
G1 F1125 X125.794 Y134.845 E40.53425
G1 F1500 E36.53425
G0 F9000 X124.285 Y135.599
G1 F1500 E40.53425
G1 F1125 X94.396 Y105.71 E42.55872
G1 F1500 E38.55872
G0 F9000 X93.748 Y107.325
G1 F1500 E42.55872
G1 F1125 X122.671 Y136.247 E44.51774
G1 F1500 E40.51774
G0 F9000 X120.956 Y136.795
G1 F1500 E44.51774
G1 F1125 X93.202 Y109.041 E46.3976
G1 F1500 E42.3976
G0 F9000 X92.782 Y110.884
G1 F1500 E46.3976
G1 F1125 X119.109 Y137.211 E48.18082
G1 F1500 E44.18082
G0 F9000 X117.126 Y137.491
G1 F1500 E48.18082
G1 F1125 X92.502 Y112.866 E49.84871
G1 F1500 E45.84871
G0 F9000 X92.4 Y115.027
G1 F1500 E49.84871
G1 F1125 X114.966 Y137.594 E51.37721
G1 F1500 E47.37721
G0 F9000 X112.576 Y137.467
G1 F1500 E51.37721
G1 F1125 X92.531 Y117.421 E52.73496
G1 F1500 E48.73496
G0 F9000 X92.997 Y120.149
G1 F1500 E52.73496
G1 F1125 X109.847 Y137 E53.8763
G1 F1500 E49.8763
G0 F9000 X106.535 Y135.95
G1 F1500 E53.8763
G1 F1125 X94.042 Y123.457 E54.72249
G1 F1500 E50.72249
G0 F9000 X92.972 Y124.681
G0 X93.846 Y126.465
G0 X94.897 Y128.189
G0 X95.611 Y129.252
G0 X97.037 Y128.715
G1 F1500 E54.72249
G1 F1125 X101.265 Y132.944 E55.0089
G1 F1500 E51.0089
G0 F300 X101.265 Y132.944 Z0.324
G0 F9000 X100.087 Y133.885
G0 X98.129 Y132.157
G0 X96.404 Y130.27
G0 X94.82 Y128.105
G0 X93.567 Y125.938
G0 X92.511 Y123.559
G0 X91.726 Y121.113
G0 X91.27 Y118.992
G0 X90.993 Y116.738
G0 X90.941 Y114.177
G0 X91.159 Y111.642
G0 X91.738 Y108.842
G0 X92.572 Y106.28
G0 X92.688 Y105.975
G0 X93.598 Y104.001
G0 X95.084 Y104.32
;TIME_ELAPSED:82.167463
;LAYER:-6
;TYPE:SUPPORT
G1 F1500 E55.0089
G1 F1125 X95.448 Y103.668 E55.0536
G1 X95.673 Y103.289 E55.07999
G1 X96.13 Y102.564 E55.1313
G1 X96.347 Y102.241 E55.15459
G1 X96.848 Y101.539 E55.20623
G1 X97.106 Y101.197 E55.23187
G1 X97.749 Y100.401 E55.29313
G1 X98.418 Y99.899 E55.34321
G1 X98.298 Y99.779 E55.35337
G1 X98.69 Y99.359 E55.38776
G1 X99.165 Y98.879 E55.42819
G1 X99.549 Y98.51 E55.46008
G1 X100.07 Y98.034 E55.50233
G1 X100.399 Y97.751 E55.52831
G1 X100.785 Y97.437 E55.5581
G1 X100.848 Y97.5 E55.56343
G1 X101.381 Y96.967 E55.60856
G1 X102.299 Y96.309 E55.67618
G1 X103.006 Y95.848 E55.72671
G1 X103.367 Y95.626 E55.75208
G1 X104.058 Y95.226 E55.79988
G1 X104.32 Y95.084 E55.81772
G1 X95.084 Y104.32 E56.5997
G1 X94.698 Y105.085 E56.651
G1 X94.738 Y105.162 E56.65619
G1 X94.494 Y105.503 E56.6813
G1 X94.38 Y105.751 E56.69764
G1 X93.98 Y106.705 E56.75957
G1 X93.98 Y106.838 E56.76753
G1 X106.919 Y93.9 E57.86299
G1 X107.735 Y93.601 E57.91502
G1 X108.555 Y93.34 E57.96654
G1 X109.025 Y93.208 E57.99576
G1 X93.207 Y109.026 E59.33502
G1 X92.982 Y109.911 E59.38969
G1 X92.982 Y110.192 E59.40651
G1 X93.129 Y110.192 E59.41531
G1 X92.93 Y110.688 E59.4473
G1 X92.958 Y110.688 E59.44898
G1 X110.857 Y92.79 E60.96438
G1 X111.182 Y92.726 E60.98421
G1 X111.955 Y92.798 E61.03069
G1 X111.955 Y92.611 E61.04189
G1 X112.522 Y92.539 E61.07611
G1 X92.538 Y112.523 E62.76808
G1 X92.516 Y112.725 E62.78025
G1 X92.725 Y112.725 E62.79276
G1 X92.438 Y113.677 E62.85229
G1 X92.454 Y114.021 E62.8729
G1 X114.048 Y92.427 E64.70119
G1 X114.882 Y92.402 E64.75114
G1 X115.479 Y92.41 E64.78689
G1 X92.604 Y115.285 E66.72363
G1 X92.432 Y116.148 E66.77632
G1 X92.48 Y116.823 E66.81683
G1 X116.822 Y92.482 E68.87774
G1 X117.197 Y92.51 E68.90025
G1 X117.984 Y92.734 E68.94924
G1 X92.619 Y118.099 E71.09681
G1 X92.623 Y118.132 E71.0988
G1 X92.734 Y118.132 E71.10544
G1 X92.734 Y118.863 E71.1492
G1 X92.819 Y119.313 E71.17662
G1 X119.313 Y92.819 E73.41978
G1 X119.745 Y92.907 E73.44617
G1 X120.471 Y93.075 E73.49078
G1 X93.076 Y120.47 E75.81022
G1 X93.249 Y121.134 E75.8513
G1 X93.383 Y121.577 E75.87901
G1 X121.578 Y93.383 E78.26614
G1 X122.077 Y93.54 E78.29746
G1 X122.64 Y93.735 E78.33313
G1 X93.735 Y122.639 E80.78037
G1 X93.911 Y123.123 E80.8112
G1 X94.129 Y123.66 E80.8459
G1 X123.658 Y94.131 E83.34602
G1 X124.327 Y94.416 E83.38955
G1 X124.639 Y94.564 E83.41022
G1 X94.562 Y124.641 E85.95674
G1 X95.034 Y125.584 E86.01987
G1 X125.581 Y95.037 E88.60618
G1 X126.19 Y95.369 E88.6477
G1 X126.485 Y95.546 E88.6683
G1 X95.542 Y126.489 E91.28813
G1 X95.901 Y127.069 E91.32897
G1 X96.036 Y127.069 E91.33705
G1 X96.121 Y127.325 E91.3532
G1 X127.358 Y96.087 E93.99797
G1 X128.003 Y96.523 E94.04458
G1 X128.146 Y96.714 E94.05887
G1 X96.661 Y128.199 E96.72459
G1 X97.028 Y128.702 E96.76187
G1 X97.269 Y129.005 E96.78505
G1 X129.005 Y97.269 E99.47202
G1 X129.474 Y97.647 E99.50808
G1 X129.779 Y97.91 E99.53219
G1 X97.908 Y129.78 E102.23056
G1 X98.323 Y130.252 E102.26819
G1 X98.578 Y130.524 E102.29051
G1 X130.518 Y98.584 E104.99475
G1 X130.92 Y98.965 E105.02791
G1 X131.233 Y99.283 E105.05463
G1 X99.281 Y131.235 E107.75989
G1 X100.015 Y131.916 E107.81983
G1 X131.913 Y100.018 E110.52052
G1 X132.084 Y100.21 E110.53592
G1 X132.562 Y100.783 E110.58059
G1 X100.783 Y132.563 E113.27125
G1 X101.349 Y133.01 E113.31443
G1 X101.582 Y133.178 E113.33162
G1 X133.177 Y101.582 E116.0067
G1 X133.534 Y102.073 E116.04305
G1 X133.761 Y102.412 E116.06747
G1 X102.41 Y133.764 E118.72189
G1 X102.556 Y133.86 E118.73236
G1 X102.629 Y133.714 E118.74213
G1 X103.284 Y134.304 E118.7949
G1 X134.145 Y103.443 E121.4078
G1 X134.334 Y103.596 E121.42236
G1 X134.408 Y103.84 E121.43762
G1 X134.551 Y103.769 E121.44718
G1 X134.654 Y103.851 E121.45506
G1 X134.832 Y104.17 E121.47693
G1 X104.17 Y134.833 E124.07302
G1 X104.449 Y134.983 E124.09198
G1 X105.104 Y135.312 E124.13586
G1 X135.313 Y105.103 E126.69355
G1 X135.756 Y106.075 E126.7575
G1 X106.075 Y135.755 E129.27045
G1 X106.571 Y135.968 E129.30276
G1 X107.081 Y136.163 E129.33545
G1 X136.163 Y107.081 E131.79772
G1 X136.322 Y107.522 E131.82579
G1 X136.525 Y108.134 E131.86439
G1 X108.133 Y136.526 E134.26824
G1 X108.891 Y136.757 E134.31568
G1 X109.228 Y136.845 E134.33653
G1 X136.844 Y109.229 E136.67468
G1 X136.985 Y109.78 E136.70873
G1 X137.114 Y110.373 E136.74507
G1 X110.372 Y137.116 E139.00926
G1 X110.792 Y137.202 E139.03493
G1 X111.624 Y137.278 E139.08494
G1 X137.331 Y111.571 E141.26147
G1 X137.411 Y112.108 E141.29397
G1 X137.372 Y112.579 E141.32226
G1 X137.155 Y112.579 E141.33525
G1 X137.321 Y112.995 E141.36207
G1 X112.825 Y137.491 E143.43606
G1 X113.701 Y137.56 E143.48867
G1 X114.151 Y137.579 E143.51563
G1 X137.523 Y114.207 E145.49446
G1 X137.352 Y114.891 E145.53667
G1 X137.591 Y114.891 E145.55098
G1 X137.586 Y115.558 E145.59091
G1 X115.646 Y137.498 E147.44849
G1 X116.136 Y137.568 E147.47812
G1 X117.056 Y137.503 E147.53334
G1 X137.354 Y117.206 E149.25186
G1 X137.289 Y117.443 E149.26657
G1 X137.374 Y117.445 E149.27166
G1 X137.412 Y117.892 E149.29852
G1 X137.286 Y118.686 E149.34665
G1 X118.784 Y137.189 E150.91319
G1 X119.514 Y136.857 E150.9612
G1 X119.514 Y137.14 E150.97814
G1 X120.462 Y136.925 E151.03634
G1 X136.938 Y120.449 E152.43131
G1 X136.707 Y121.2 E152.47835
G1 X136.523 Y121.2 E152.48936
G1 X136.523 Y121.882 E152.53019
G1 X136.323 Y122.478 E152.56783
G1 X122.571 Y136.23 E153.73216
G1 X122.847 Y136.19 E153.74886
G1 X123.876 Y135.781 E153.81515
G1 X124.336 Y135.579 E153.84523
G1 X124.908 Y135.308 E153.88312
G1 X135.308 Y124.907 E154.7637
G1 X134.826 Y125.842 E154.82667
G1 X134.601 Y126.244 E154.85425
G1 X133.96 Y127.293 E154.92785
G1 X133.542 Y127.915 E154.97272
G1 X133.079 Y128.551 E155.01981
G1 X128.536 Y133.093 E155.40441
G1 X129.075 Y132.677 E155.44517
G1 X129.438 Y132.382 E155.47318
G1 X130.057 Y131.85 E155.52204
G1 X130.353 Y131.581 E155.54599
G1 X130.923 Y131.033 E155.59333
G1 X131.198 Y130.754 E155.61678
G1 X131.74 Y130.178 E155.66413
G1 X132.101 Y129.769 E155.69679
G1 X132.551 Y129.232 E155.73873
G1 X132.824 Y128.89 E155.76493
G1 X133.079 Y128.551 E155.79033
G1 F1500 E151.79033
G0 F300 X133.079 Y128.551 Z0.444
G0 F9000 X134.467 Y129.14
